X: 20097
T: KELVIN GROVE
C:
%R: reel
B: Elias Howe "The Musician's Companion" 1843 p.9 #7
S: http://imslp.org/wiki/The_Musician's_Companion_(Howe,_Elias)
Z: 2015 John Chambers <jc:trillian.mit.edu>
M: C
L: 1/8
K: G
% - - - - - - - - - - - - - - - - - - - - - - - - -
G/A/ |\
BdAB GFED | E2A2 A2GA | BdAB GFED | E2G2 G2AB |\
cBcd e2Bc | dBAG A2GA | BdAB GFED | E2G2 G2 |]
% - - - - - - - - - - - - - - - - - - - - - - - - -

%%sep 1 1 500

